X:1
T:We Bless Thee for Thy Peace
T:We Bless Thee for Thy Peace
T:Scott Werdebaugh, 2019
T:Anonymous; Altered/Adapted by Scott Werdebaugh
T:© 2019 Scott Werdebaugh &amp; New Heart Music— May copy &amp; use freely for Christian worship &amp; devotions with no alterations. All other rights reserved.
T:© 2019 Scott Werdebaugh &amp; New Heart Music— May copy &amp; use freely for Christian worship &amp; devotions with no alterations. All other rights reserved.
C:Scott Werdebaugh, 2019
Z:© 2019 Scott Werdebaugh & New Heart Music— May copy & use freely for
Z:Christian worship & devotions with no alterations. All other rights reserved.
%%score ( 1 2 ) ( 3 4 )
L:1/8
Q:1/4=116
M:3/4
K:C
V:1 treble 
V:2 treble 
V:3 bass 
V:4 bass 
V:1
"^Fervently prayerful" [Ec]2 [Fc]2 [Gc]2 | [Ac]4 [FA]2 | G4 (GF) | [CE]4 z2 | [FA]2 [CA]2 [DA]2 | %5
w: 1.~We bless Thee|for Thy|peace, O *|God,|Deep as the|
w: 2.~We ask not,|Fa- ther,|for re- *|pose|Which comes from|
w: 3.~That peace which|flows se-|rene and *|deep,|Like a riv-|
w: 4.~O Fa- ther,|give our|hearts this *|peace,|What- ev- er|
 ([EG]2 [DF]2 [CE]2) | ([EG]2 [DF]2) [CE]2 | [B,D]4 z2 | [CE]2 [Fc]2 [DB]2 | c4 [FA]2 | c4 [Fc]2 | %11
w: un- * *|fath- * omed|sea,|Which falls like|sun- shine|on the|
w: an * *|out- * ward|rest,|If we may|have through|all life's|
w: er * *|in * the|soul,|Whose banks a|liv- ing|ver- dure|
w: the * *|out- * ward|be,|Till all life's|dis- ci-|pline shall|
 B4 [FB]2 | c4 [FA]2 | ([Fd]3 [Ec]) ([DB]>[Fc]) | [Ec]4 z2"^Play 4 times" :| %15
w: road Of|those who|trust * in *|Thee.|
w: woes Thy|peace with-|in * our *|breast.|
w: keep, God's|sun- shine|o'er * the *|whole.|
w: cease, And|we go|home * to *|Thee.|
 ([Fc]2 [DB]2 [CA]2 B>[Fc]) | [Ec]8 |] %17
w: ||
w: ||
w: ||
w: A- * * * *|men.|
V:2
 x6 | x6 | (B,2 C2) D2 | x6 | x6 | x6 | x6 | x6 | x6 | (E2 G2) x2 | (F2 E2) x2 | (G2 D2) x2 | %12
 (E2 G2) x2 | x6 | x6 :| x6 D3/2 x/ | x8 |] %17
V:3
 [C,G,]2 [D,G,]2 [E,G,]2 | (A,2 B,2) [F,C]2 | ([D,G,]2 [F,A,]2) [G,B,]2 | [C,G,]4 z2 | %4
 [F,C]2 [F,A,]2 [F,A,]2 | ([C,C]2 [G,B,]2 [C,G,]2) | ([C,C]2 [G,B,]2) [C,G,]2 | [G,,G,]4 z2 | %8
 [C,G,]2 [F,A,]2 [B,,G,]2 | (G,2 E,2) [F,C]2 | [F,A,]4 [A,C]2 | (D2 B,2) [D,G,]2 | %12
 (G,2 E,2) [C,F,]2 | G,4 ([G,B,]>[F,A,]) | [C,G,]4 z2"^Play 4 times" :| %15
 ([F,A,]2 [G,B,]2 [F,A,]2 [G,B,][F,A,]) | [C,G,]8 |] %17
V:4
 x6 | F,4 x2 | x6 | x6 | x6 | x6 | x6 | x6 | x6 | C,4 x2 | x6 | G,4 x2 | C,4 x2 | (B,,2 C,2) x2 | %14
 x6 :| x8 | x8 |] %17

